X:1
T:’Twill All Be Right at Last
T:William James Kirkpatrick
T:’Twill All Be Right at Last
T:Public Domain
T:Public Domain
C:William James Kirkpatrick
Z:Public Domain
%%score ( 1 2 ) ( 3 4 )
L:1/8
M:3/4
K:Db
V:1 treble 
V:2 treble 
V:3 bass 
V:4 bass 
V:1
 [FA][=E=G] [FA] | [Fd]3 [FA] [=EB][E=G] | [FA]4 [FA]2 | [EG]3 [GB] [FA][EG] | %4
w: 1.~Pray on, pray|on, O wear- y|not, Tho’|great thy con- flict|
w: 2.~Pray on, pray|on, and ne- ver|faint, Tho’|oft se- vere- ly|
w: 3.~Pray on, pray|on, with stead- fast|hope, For|thou shalt yet pre-|
 [DF]3 [FA] [=E=G][FA] | [Fd]3 [FA] [Gc][G=A] | [GB]4 [=Ed]2 | [FA]3 [DF] [CG][CE] | %8
w: be; Look brave- ly|up, and trust in|Him Whose|love a- bides with|
w: tried; If thine a|per- se- ver- ing|faith, That|will not be de-|
w: vail; “Ask what thou|wilt, it shall be|done,” The|pro- mise can- not|
 D3 [DF] [CE][CA] | [Ec]3 [EA] [E=G][EB] | [EA]3 [EA] [EB][Ec] | [Ed]4 [Ec]2 | %12
w: thee. Re- mem- ber|He led thee forth,|Thro’ toil and dan-|gers past;|
w: nied; That thou shalt|thy heart’s de- sire|The Lord His Word|hath past;|
w: fail. Cling firm- ly|the sol- id rock,|And hold the an-|chor fast;|
 [EB]3 [EB] [Ec][Ed] | [Ee]3 [Ac] [=GB][_Gc] | [Fd]4 [DF]2 | [CE]3 [CA] [DB][Ec] | [CA]3 || %17
w: Tho’ yet un- an-|swered is thy prayer,|’Twill all|be right at last.||
w: Be- liev- est thou?|then rest as- sured,|’Twill all|be right at last.||
w: The clouds will break,|the light will come|’Twill all|be right at last.||
"^Refrain" [FA][=E=G] [FA] | [Fd]3 [=EB] [FA][E=G] | [EG]4 [EA]2 | [Gc]3 [GB] [EA][CG] | %21
w: ||||
w: ||||
w: ||||
 [DF]3 [FA] [=E=G][FA] | [Fd]3 [Af] [Af][Ad] | [GB]3 [=Ed] [Ec][EB] | (A2 d2) [Ge]2 | [Fd]3 |] %26
w: |||||
w: |||||
w: |||||
V:2
 x3 | x6 | x6 | x6 | x6 | x6 | x6 | x6 | D3 x3 | x6 | x6 | x6 | x6 | x6 | x6 | x6 | x3 || x3 | x6 | %19
w: ||||||||how|||||||||||
w: ||||||||gain|||||||||||
w: ||||||||to|||||||||||
 x6 | x6 | x6 | x6 | x6 | F4 x2 | x3 |] %26
w: |||||||
w: |||||||
w: |||||||
V:3
 [D,D][D,D] [D,D] | [D,A,]3 [D,A,] [D,D][D,D] | [D,D]4 [D,A,]2 | [A,,A,]3 [A,,A,] [A,,A,][A,,A,] | %4
w: ~ ~ ~|~ ~ ~ ~|~ ~|~ ~ ~ ~|
 [D,A,]3 [D,D] [D,D][D,D] | [D,A,]3 [D,D] [G,D][G,D] | [G,D]4 [=G,B,]2 | [A,D]3 A, [A,,E,][A,,G,] | %8
w: ~ ~ ~ ~|~ ~ ~ ~|~ ~|~ ~ ~ ~|
 [D,F,]3 [D,A,] [E,A,][E,A,] | [E,A,]3 [E,C] [E,B,][E,D] | [A,,A,C]3 [A,C] [A,D][A,C] | %11
w: ~ ~ ~ ~|~ ~ ~ ~|~ ~ ~ ~|
 [=G,B,]4 A,2 | [E,=G,]3 [E,G,] A,[A,B,] | [A,C]3 [A,E] [A,D][A,C] | [D,A,]4 [D,A,]2 | %15
w: ~ ~|~ ~ ~ ~|~ ~ ~ ~|~ ~|
 [E,A,]3 [E,A,] [E,=G,][E,G,] | [A,,A,]3 || [D,A,][D,D] [D,D] | [D,A,]3 [D,=G,] [D,A,][D,B,] | %19
w: ~ ~ ’Twill all|be|right, ’twill all|be right, ’Twill all|
 [A,,C]4 [A,C]2 | [A,E]3 [A,D] [A,C][A,,A,] | [D,A,]3 [D,D] [D,D][D,D] | [D,A,]3 [D,D] [D,D][F,D] | %23
w: be right|at last; Pray on,|pray on, O wear-|y not, ’Twill all|
 [G,D]3 [=G,B,] [G,D][G,D] | [A,D]4 [A,C]2 | [D,A,]3 |] %26
w: be right at last.|||
V:4
 x3 | x6 | x6 | x6 | x6 | x6 | x6 | x3 A, x2 | x6 | x6 | x6 | x4 A,2 | x4 A, x | x6 | x6 | x6 | %16
w: |||||||~||||~|~||||
 x3 || x3 | x6 | x6 | x6 | x6 | x6 | x6 | x6 | x3 |] %26
w: ||||||||||

